svgs/duotone/fire-burner.svg

<svg xmlns="http://www.w3.org/2000/svg" viewBox="0 0 640 512"><!--! Font Awesome Pro 6.4.0 by @fontawesome - https://fontawesome.com License - https://fontawesome.com/license (Commercial License) Copyright 2023 Fonticons, Inc. --><defs><style>.fa-secondary{opacity:.4}</style></defs><path class="fa-primary" d="M283.7 0c3.5 0 7 1.3 9.8 3.8c19.7 17.8 38.2 37 55.5 57.7c7.9-9.9 16.8-20.7 26.5-29.5c5.6-5.1 14.4-5.1 20 0c24.7 22.7 45.6 52.7 60.4 81.1c14.5 28 24.2 58.8 24.2 79C480 280 408.7 352 320 352c-89.7 0-160-72.1-160-159.8c0-26.4 12.7-60.7 32.4-92.6c20-32.4 48.1-66.1 81.4-95.8c2.8-2.5 6.4-3.8 10-3.7zM321 288c18 0 34-5 49-15c30-21 38-63 20-96c-2-4-4-8-7-12l-36 42s-58-74-62-79c-30 37-45 58-45 82c0 49 36 78 81 78z"/><path class="fa-secondary" d="M321 288c-45 0-81-29-81-78c0-24 15-45 45-82c4 5 62 79 62 79l36-42c3 4 5 8 7 12c18 33 10 75-20 96c-15 10-31 15-49 15zM32 280c0-13.3 10.7-24 24-24h48c13.3 0 24 10.7 24 24s-10.7 24-24 24H80v80H560V304H536c-13.3 0-24-10.7-24-24s10.7-24 24-24h48c13.3 0 24 10.7 24 24V384c17.7 0 32 14.3 32 32v64c0 17.7-14.3 32-32 32H32c-17.7 0-32-14.3-32-32V416c0-17.7 14.3-32 32-32V280zM320 480a32 32 0 1 0 0-64 32 32 0 1 0 0 64zm160-32a32 32 0 1 0 -64 0 32 32 0 1 0 64 0zM192 480a32 32 0 1 0 0-64 32 32 0 1 0 0 64z"/></svg>

<svg xmlns="http://www.w3.org/2000/svg" viewBox="0 0 640 512"><!--! Font Awesome Pro 6.3.0 by @fontawesome - https://fontawesome.com License - https://fontawesome.com/license (Commercial License) Copyright 2023 Fonticons, Inc. --><defs><style>.fa-secondary{opacity:.4}</style></defs><path class="fa-primary" d="M273.8 3.734C279.4-1.26 287.1-1.242 293.5 3.773C313.3 21.55 331.8 40.74 349 61.49C356.9 51.61 365.8 40.76 375.5 31.99C381.1 26.87 389.9 26.89 395.5 32.03C420.2 54.71 441.1 84.69 455.8 113.2C470.4 141.2 480 169.9 480 190.1C480 277.9 408.7 352 320 352C230.3 352 160 277.8 160 190.1C160 163.7 172.7 131.5 192.4 99.52C212.4 67.16 240.5 33.43 273.8 3.734V3.734zM320.1 287.1C339 287.1 355 282.1 370 272.1C400 251.1 408 209.1 390 176.1C388 172.1 386 168.1 383 164.1L347 206.1C347 206.1 289 132.1 285 127.1C255 164.1 240 185.1 240 209.1C240 258.1 276 287.1 320.1 287.1z"/><path class="fa-secondary" d="M240 210C240 186 255 165 285 128C289 133 347 207 347 207L383 165C386 169 388 173 390 177C408 210 400 252 370 273C355 283 339 288 320.1 288C276 288 240 259 240 210zM32 280C32 266.7 42.75 256 56 256H104C117.3 256 128 266.7 128 280C128 293.3 117.3 304 104 304H80V384H560V304H536C522.7 304 512 293.3 512 280C512 266.7 522.7 256 536 256H584C597.3 256 608 266.7 608 280V384C625.7 384 640 398.3 640 416V480C640 497.7 625.7 512 608 512H32C14.33 512 0 497.7 0 480V416C0 398.3 14.33 384 32 384V280zM320 480C337.7 480 352 465.7 352 448C352 430.3 337.7 416 320 416C302.3 416 288 430.3 288 448C288 465.7 302.3 480 320 480zM448 416C430.3 416 416 430.3 416 448C416 465.7 430.3 480 448 480C465.7 480 480 465.7 480 448C480 430.3 465.7 416 448 416zM192 480C209.7 480 224 465.7 224 448C224 430.3 209.7 416 192 416C174.3 416 160 430.3 160 448C160 465.7 174.3 480 192 480z"/></svg>
